src/img/icons/instagram.svg

<svg width="32" height="32" viewBox="0 0 32 32" fill="none" xmlns="http://www.w3.org/2000/svg">
<path d="M16.0234 10.5859C18.9766 10.5859 21.4141 13.0234 21.4141 15.9766C21.4141 18.9766 18.9766 21.3672 16.0234 21.3672C13.0234 21.3672 10.6328 18.9766 10.6328 15.9766C10.6328 13.0234 13.0234 10.5859 16.0234 10.5859ZM16.0234 19.4922C17.9453 19.4922 19.4922 17.9453 19.4922 15.9766C19.4922 14.0547 17.9453 12.5078 16.0234 12.5078C14.0547 12.5078 12.5078 14.0547 12.5078 15.9766C12.5078 17.9453 14.1016 19.4922 16.0234 19.4922ZM22.8672 10.3984C22.8672 9.69531 22.3047 9.13281 21.6016 9.13281C20.8984 9.13281 20.3359 9.69531 20.3359 10.3984C20.3359 11.1016 20.8984 11.6641 21.6016 11.6641C22.3047 11.6641 22.8672 11.1016 22.8672 10.3984ZM26.4297 11.6641C26.5234 13.3984 26.5234 18.6016 26.4297 20.3359C26.3359 22.0234 25.9609 23.4766 24.7422 24.7422C23.5234 25.9609 22.0234 26.3359 20.3359 26.4297C18.6016 26.5234 13.3984 26.5234 11.6641 26.4297C9.97656 26.3359 8.52344 25.9609 7.25781 24.7422C6.03906 23.4766 5.66406 22.0234 5.57031 20.3359C5.47656 18.6016 5.47656 13.3984 5.57031 11.6641C5.66406 9.97656 6.03906 8.47656 7.25781 7.25781C8.52344 6.03906 9.97656 5.66406 11.6641 5.57031C13.3984 5.47656 18.6016 5.47656 20.3359 5.57031C22.0234 5.66406 23.5234 6.03906 24.7422 7.25781C25.9609 8.47656 26.3359 9.97656 26.4297 11.6641ZM24.1797 22.1641C24.7422 20.8047 24.6016 17.5234 24.6016 15.9766C24.6016 14.4766 24.7422 11.1953 24.1797 9.78906C23.8047 8.89844 23.1016 8.14844 22.2109 7.82031C20.8047 7.25781 17.5234 7.39844 16.0234 7.39844C14.4766 7.39844 11.1953 7.25781 9.83594 7.82031C8.89844 8.19531 8.19531 8.89844 7.82031 9.78906C7.25781 11.1953 7.39844 14.4766 7.39844 15.9766C7.39844 17.5234 7.25781 20.8047 7.82031 22.1641C8.19531 23.1016 8.89844 23.8047 9.83594 24.1797C11.1953 24.7422 14.4766 24.6016 16.0234 24.6016C17.5234 24.6016 20.8047 24.7422 22.2109 24.1797C23.1016 23.8047 23.8516 23.1016 24.1797 22.1641Z" fill="#131212"/>
</svg>

<svg xmlns="http://www.w3.org/2000/svg" viewBox="0 0 32 32">
  <path fill="currentColor" d="M16.023 10.586c2.954 0 5.391 2.437 5.391 5.39 0 3-2.437 5.391-5.39 5.391-3 0-5.391-2.39-5.391-5.39a5.39 5.39 0 0 1 5.39-5.391Zm0 8.906c1.922 0 3.47-1.547 3.47-3.515a3.461 3.461 0 0 0-3.47-3.47c-1.968 0-3.515 1.548-3.515 3.47a3.51 3.51 0 0 0 3.515 3.515Zm6.844-9.094a1.26 1.26 0 0 0-1.265-1.265 1.26 1.26 0 0 0-1.266 1.265 1.26 1.26 0 0 0 1.266 1.266 1.26 1.26 0 0 0 1.265-1.266Zm3.563 1.266c.093 1.734.093 6.938 0 8.672-.094 1.687-.47 3.14-1.688 4.406-1.219 1.219-2.719 1.594-4.406 1.688-1.734.093-6.938.093-8.672 0-1.687-.094-3.14-.47-4.406-1.688-1.219-1.265-1.594-2.719-1.688-4.406-.093-1.734-.093-6.938 0-8.672.094-1.687.47-3.187 1.688-4.406 1.265-1.219 2.719-1.594 4.406-1.688 1.734-.093 6.938-.093 8.672 0 1.687.094 3.187.47 4.406 1.688 1.219 1.219 1.594 2.719 1.688 4.406Zm-2.25 10.5c.562-1.36.422-4.64.422-6.187 0-1.5.14-4.782-.422-6.188-.375-.89-1.078-1.64-1.97-1.969-1.405-.562-4.687-.422-6.187-.422-1.546 0-4.828-.14-6.187.422A3.616 3.616 0 0 0 7.82 9.79c-.562 1.405-.422 4.687-.422 6.187 0 1.546-.14 4.828.422 6.187a3.554 3.554 0 0 0 2.016 2.016c1.36.562 4.64.422 6.187.422 1.5 0 4.782.14 6.188-.422.89-.375 1.64-1.078 1.969-2.016Z"/>
</svg>
